!!!!SEGMENT: pl-kk--kk-i-382--070_anonim--offertorium-nro-11.krn
!!!cenid: 18xx:1572
!!!COM: Anonim
!!!COM-rismID: pe30004985
!!!CDT:
!!!CNT:
!!!OTL: Offertorium Nro 11
!!!PDT:
!!!AGN: Sacred
!!!SMS-siglum: PL-Kk
!!!SMS-shelfmark: Kk.I.382
!!!SMS-shelfwork: 056 W
!!!SMS-variant:
!!!SMS-altvar:
!!!NIFC-rismSourceID: 1001141118
!!!NIFC-islandoraID: pl-kk:6162
!!!URL-pdf-islandora: https://repozytorium.nifc.pl/islandora/object/pl-kk%3A6162/datastream/PDF/view
!!!URL-scan: https://polish.musicsources.pl/pl/lokalizacje/galeria/rekopisy/5994 @EN{Scan on Polish Music Sources Website} @PL{Skany w portalu Dziedzictwo Muzyki Polskiej w otwartym dostępie}
!!!ONB-nifc: UWAGA: Offertoria od skanu 0041 (S/T1), 0113 (T2), 0185 (A/B1), 0262 (B2)
!!!AIN: 1 alto 1 bass 2 tenor
!!!key:
**kern	**text	**kern	**text	**kern	**text	**kern	**text
*part4	*part4	*part3	*part3	*part2	*part2	*part1	*part1
*staff4	*staff4	*staff3	*staff3	*staff2	*staff2	*staff1	*staff1
*Ibass	*	*Ialto	*	*Itenor	*	*Itenor	*
*I"[Basso II]	*	*I"[Alto vel Basso I]	*	*I"[Tenore II]	*	*I"[Soprano vel Tenore I.]	*
*I'B 2	*	*I'A / B 1	*	*I'T 2	*	*I'S / T 1	*
*clefF4	*	*clefC3	*	*clefC4	*	*clefC1	*
*k[b-e-]	*	*k[b-e-]	*	*k[b-e-]	*	*k[b-e-]	*
*B-:	*	*B-:	*	*B-:	*	*B-:	*
*M3/4	*	*M3/4	*	*M3/4	*	*M3/4	*
*2\right	*	*2\right	*	*2\right	*	*2\right	*
=1	=1	=1	=1	=1	=1	=1	=1
!	!	!LO:TX:b:t=adagio	!	!	!	!	!
!LO:TX:t=P:problem=all\right&colon; global	!	!LO:TX:b:t=G.mol.	!	!	!	!	!
!LO:TX:a:t=G.mol.	!	!LO:TX:t=P:problem=all\right&colon; global	!	!LO:TX:t=P:problem=all\right&colon; global	!	!LO:TX:t=P:problem=all\right&colon; global	!
8G\L	Sta-	2.g\	Sta-	2.d\	Sta-	2.b-\	Sta-
8GG/	.	.	.	.	.	.	.
8BB-/	.	.	.	.	.	.	.
8D/J	.	.	.	.	.	.	.
4G\	-bat	.	.	.	.	.	.
=2	=2	=2	=2	=2	=2	=2	=2
(4D\	sta-	2.f#X\	-bat	2.d\	-bat	2.a\	-bat
4F#X\)	.	.	.	.	.	.	.
4D\	-bat	.	.	.	.	.	.
=3	=3	=3	=3	=3	=3	=3	=3
8D\L	Ma-	2.a\	Ma-	2.d\	Ma-	2.cc\	Ma-
8F#X\	.	.	.	.	.	.	.
8A\	.	.	.	.	.	.	.
8c\J	.	.	.	.	.	.	.
(8A\L	-ter	.	.	.	.	.	.
8F#\J)	.	.	.	.	.	.	.
=4	=4	=4	=4	=4	=4	=4	=4
(8G\L	Ma-	2.g\	-ter	2.d\	-ter	2.b-\	-ter
8B-\	.	.	.	.	.	.	.
8G\	.	.	.	.	.	.	.
8D\J)	.	.	.	.	.	.	.
(8BB-/L	-ter	.	.	.	.	.	.
8GG/J)	.	.	.	.	.	.	.
=5	=5	=5	=5	=5	=5	=5	=5
(4G\	do-	(4b-\	do-	(4B-X\	do-	(4dd\	do-
4F#X\)	.	4a\)	.	4c\)	.	4cc\)	.
4G\	-lo-	4g\	-lo-	4d\	-lo-	4b-\	-lo-
!LO:LB:g=original	!	!	!	!	!	!	!
=6	=6	=6	=6	=6	=6	=6	=6
4D\	-ro-	4g\	-ro-	4d\	-ro-	4b-\	-ro-
4D\	-sa	4f#X\	-sa	4d\	-sa	4a\	-sa
4r	.	4r	.	4r	.	4r	.
=7	=7	=7	=7	=7	=7	=7	=7
!	!	!LO:SIC:v:l:s=jux	!	!	!	!	!
(8BB-/L	jux-	(4b-\	Jux-	2B-\	jux-	(4dd\	jux-
8D/J	.	.	.	.	.	.	.
4BB-/)	.	8fn\L	.	.	.	8dd\L	.
.	.	8g\J)	.	.	.	8ee-\J)	.
4BB-/	-ta	(8f\L	-ta	4B-\	-ta	(8dd\L	-ta
.	.	8e-\J)	.	.	.	8cc\J)	.
!	!	!	!	!	!	!LO:LB:g=original	!
=8	=8	=8	=8	=8	=8	=8	=8
4AA/	cru-	4e-\	cru-	4F/	cru-	4cc\	cru-
4BB-/	-cem	4d\	-cem	4F/	-cem	4b-\	-cem
4r	.	4r	.	4r	.	4r	.
!	!	!LO:LB:g=original	!	!LO:LB:g=original	!	!	!
=9	=9	=9	=9	=9	=9	=9	=9
2F\	la-	(4c\	la-	(4c\	la-	(4a\	la-
.	.	4d\)	.	4B-X\)	.	4b-\)	.
!LO:SIC:v:l:s=cri	!	!LO:SIC:v:l:s=cri	!	!LO:SIC:v:l:s=cri	!	!LO:SIC:v:l:s=cri	!
4F\	-chry-	4e-\	-hri-	4A\	-chri-	4cc\	-chri-
=10	=10	=10	=10	=10	=10	=10	=10
4F\	-mo-	4e-\	-mo-	4F/	-mo-	4cc\	-mo-
4BB-/	-sa	4d\	-sa	4F/	-sa	4b-\	-sa
4r	.	4r	.	4r	.	4r	.
=11	=11	=11	=11	=11	=11	=11	=11
(8D\L	dum-	2f#X\	dum-	2c\	dum-	2cc\	dum-
8F#X\	.	.	.	.	.	.	.
8A\	.	.	.	.	.	.	.
8F#\J)	.	.	.	.	.	.	.
(8D\L	-pen-	4a\	-pen-	4c\	-pen-	4cc\	-pen-
8F#\J)	.	.	.	.	.	.	.
!LO:LB:g=original	!	!	!	!	!	!	!
=12	=12	=12	=12	=12	=12	=12	=12
(4G\	-de-	(4b-\	-de-	(4B-\	-de-	(4dd\	-de-
4A\)	.	4a\)	.	4c\)	.	4cc\)	.
4B-\	-bat	4g\	-bat	4B-\	-bat	4b-\	-bat
=13	=13	=13	=13	=13	=13	=13	=13
!LO:SIC:v:l:s=Fi	!	!LO:SIC:v:l:s=Fi	!	!LO:SIC:v:l:s=Fi	!	!LO:SIC:v:l:s=Fi	!
(4c\	fi-	(4a\	fi-	(4A/	fi-	(4cc\	fi-
4d\)	.	4g\)	.	4G/)	.	4b-\)	.
4D/	-li-	4f#X\	-li-	4F#X/	-li-	4a\	-li-
=14	=14	=14	=14	=14	=14	=14	=14
2E-X\	-us	2f#X\	-us	2A;\	-us	2.cc\	-us
4r	.	4r	.	4r	.	.	.
!	!	!	!	!	!	!LO:LB:g=original	!
=15	=15	=15	=15	=15	=15	=15	=15
(8D\L	dum-	2a\	dum-	2d\	dum-	2cc\	dum-
8F#X\	.	.	.	.	.	.	.
8A\	.	.	.	.	.	.	.
8F#\J)	.	.	.	.	.	.	.
(8D\L	-pen	4cc\	-pen	4c\	-pen	4ee-\	-pen
8F#\J)	.	.	.	.	.	.	.
=16	=16	=16	=16	=16	=16	=16	=16
(4G\	de-	(4b-\	de-	(4B-\	de-	(4dd\	de-
4A\)	.	4a\)	.	4e-\)	.	4cc\)	.
4B-\	-bat	4g\	-bat	4d\	-bat	4b-\	-bat
!	!	!LO:LB:g=original	!	!LO:LB:g=original	!	!	!
=17	=17	=17	=17	=17	=17	=17	=17
!LO:SIC:v:l:s=Fi	!	!LO:SIC:v:l:s=Fi	!	!LO:SIC:v:l:s=Fi	!	!LO:SIC:v:l:s=Fi	!
(4c\	fi-	(4a\	fi-	(4e-\	fi-	(4cc\	fi-
4d\)	.	4g\)	.	4d\)	.	4b-\)	.
4D/	-li-	4f#X\	-li-	4d\	-li-	4a\	-li-
=18	=18	=18	=18	=18	=18	=18	=18
2.G\	-us	2g\	-us.	2.d\	-us.	2.b-\	-us
.	.	4r	.	.	.	.	.
!LO:LB:g=original	!	!	!	!	!	!	!
=19||	=19||	=19||	=19||	=19||	=19||	=19||	=19||
8BB-/L	Cu-	2.fn\	Cu-	2.B-\	Cu-	2.dd\	Cu-
8D/	.	.	.	.	.	.	.
8F/	.	.	.	.	.	.	.
8D/J	.	.	.	.	.	.	.
4BB-/	-jus	.	.	.	.	.	.
=20	=20	=20	=20	=20	=20	=20	=20
8F\L	cu-	2.f\	-jus	2.c\	-jus	2.ee-\	-jus
8A\	.	.	.	.	.	.	.
8c\	.	.	.	.	.	.	.
8A\J	.	.	.	.	.	.	.
4F\	-jus	.	.	.	.	.	.
=21	=21	=21	=21	=21	=21	=21	=21
8BB-/	a-	8f\	a-	8B-\	a-	8dd\	a-
8BB-/	-ni-	8f\	-ni-	8B-\	-ni-	8dd\	-ni-
4AA/	-mam	4e-\	-mam	4F/	-mam	4cc\	-mam
4BB-/	ge-	4d\	ge-	4F/	ge-	4b-\	ge-
!	!	!	!	!	!	!LO:LB:g=original	!
=22	=22	=22	=22	=22	=22	=22	=22
.	.	16qqe-/LL	.	.	.	.	.
.	.	16qqd/	.	.	.	.	.
.	.	16qqc/	.	.	.	.	.
.	.	16qqd/JJ	.	.	.	.	.
4F\	-men-	4d\	-men-	4F/	-men-	4b-\	-men-
4F\	-tem	4c\	-tenm	4F/	-tem	4a\	-tem
4r	.	4r	.	4r	.	4r	.
=23	=23	=23	=23	=23	=23	=23	=23
(4F\	con-	2e-\	con-	2A\	con-	2cc\	Con-
4A\)	.	.	.	.	.	.	.
4F\	-tris-	4e-\	-tris-	4A\	-tris-	4cc\	-tris-
!	!	!LO:LB:g=original	!	!	!	!	!
=24	=24	=24	=24	=24	=24	=24	=24
!LO:SIC:v:l:s=ta	!	!LO:SIC:v:l:s=ta	!	!LO:SIC:v:l:s=ta	!	!LO:SIC:v:l:s=ta	!
(4B-\	-tan-	4d\	-tan-	2F/	-tan-	(4b-\	-tan-
4F\)	.	4e-\	.	.	.	4cc\)	.
!LO:SIC:v:l:s=tam	!	!LO:SIC:v:l:s=tam	!	!LO:SIC:v:l:s=tam	!	!LO:SIC:v:l:s=tam	!
4BB-/	-tem	4f\	-tem	4B-\	-tem	4dd\	-tem
!LO:LB:g=original	!	!	!	!LO:LB:g=original	!	!	!
=25	=25	=25	=25	=25	=25	=25	=25
8BB-/	et	8f\	et	8B-\	et	8dd\	et
8BB-/	do-	8f\	do-	8B-\	do-	8dd\	do-
4AA/	-len-	(4e-\	-len-	2F/	-len-	(4cc\	-len-
8BB-/L	.	4d\)	.	.	.	4b-\)	.
8D/J	.	.	.	.	.	.	.
=26	=26	=26	=26	=26	=26	=26	=26
2F\	-tem	2c\	-tem	2F/	-tem	2a\	-tem
4r	.	4r	.	4r	.	4r	.
=27	=27	=27	=27	=27	=27	=27	=27
8F\L	per-	2f\	per-	2c\	per-	2ee-\	per-
8A\	.	.	.	.	.	.	.
8c\	.	.	.	.	.	.	.
8A\J	.	.	.	.	.	.	.
(8F\L	-tran-	4f\	-tran-	4c\	-tran-	4ee-\	-tran-
8A\J)	.	.	.	.	.	.	.
!	!	!	!	!	!	!LO:LB:g=original	!
=28	=28	=28	=28	=28	=28	=28	=28
(4B-\	-si-	(4f\	-si-	(4B-\	-si-	(4dd\	-si-
4F\)	.	4a\)	.	4e-\)	.	4cc\)	.
4BB-/	-vit	4b-\	-vit	4B-\	-vit	4dd\	-vit
=29	=29	=29	=29	=29	=29	=29	=29
(4E-\	gla-	(4g\	gla-	(8c\L	gla-	(8ee-\L	gla-
.	.	.	.	(8B-\J)	.	8dd\J	.
4.F\)	.	4.f\)	.	4.A\)	.	4.cc\)	.
8F\	-di-	8f\	-di-	8A\	-di-	8cc\	-di-
!	!	!LO:LB:g=original	!	!	!	!	!
=30	=30	=30	=30	=30	=30	=30	=30
2BB-/	-us	2f\	-us	2B-\	-us	2dd\	-us
4r	.	4r	.	4r	.	4r	.
!LO:LB:g=original	!	!	!	!	!	!	!
=31	=31	=31	=31	=31	=31	=31	=31
8F\L	per-	2f\	per-	(4e-\	per-	(4cc\	per-
8A\	.	.	.	.	.	.	.
8c\	.	.	.	4c\)	.	4ee-\)	.
8A\J	.	.	.	.	.	.	.
8F\L	-tran-	4f\	-tran-	4e-\	-tran-	4cc\	-tran-
8A\J	.	.	.	.	.	.	.
!	!	!	!	!LO:LB:g=original	!	!	!
=32	=32	=32	=32	=32	=32	=32	=32
(4B-\	-si-	(4f\	-si-	(4B-\	-si-	(4dd\	-si-
8F\L	.	4a\)	.	4e-\)	.	4cc\)	.
8D\J)	.	.	.	.	.	.	.
4BB-/	-vit	4b-\	-vit	4B-\	-vit	4dd\	-vit
=33	=33	=33	=33	=33	=33	=33	=33
4E-\	gla-	(4g\	gla-	(8c\L	gla-	(8ee-\L	gla-
.	.	.	.	8B-\J	.	8dd\J	.
4.F\	.	4.f\)	.	4.A\)	.	4.cc\)	.
8F\	-di-	8f\	-di-	8A\	-di-	8cc\	-di-
=34	=34	=34	=34	=34	=34	=34	=34
2.BB-/	-us.	2.f\	-us.	2.B-\	-us.	2.dd\	-us.
==	==	==	==	==	==	==	==
*-	*-	*-	*-	*-	*-	*-	*-
!!!system-decoration: [(s1,s2,s3,s4)]
!!!ENC: Andrzej Gręziak
!!!END: 2021-02-01
!!!YEC: Copyright 2022 Narodowy Instytut Fryderyka Chopina (https://polishscores.org)
!!!YEM: Licence CC BY 4.0 (https://creativecommons.org/licenses/by/4.0)
